public/icons/bathroom.svg

<svg xmlns="http://www.w3.org/2000/svg" xmlns:xlink="http://www.w3.org/1999/xlink" width="500" zoomAndPan="magnify" viewBox="0 0 375 374.999991" height="500" preserveAspectRatio="xMidYMid meet" version="1.0"><defs><clipPath id="ed6b6e5593"><path d="M 67.859375 247 L 273 247 L 273 256 L 67.859375 256 Z M 67.859375 247 " clip-rule="nonzero"/></clipPath><clipPath id="37a0ee857b"><path d="M 298.195312 63.679688 L 307.042969 63.679688 L 307.042969 123.746094 L 298.195312 123.746094 Z M 298.195312 63.679688 " clip-rule="nonzero"/></clipPath><clipPath id="37dac3572e"><path d="M 76 302 L 86 302 L 86 311.179688 L 76 311.179688 Z M 76 302 " clip-rule="nonzero"/></clipPath><clipPath id="8b5f224638"><path d="M 102 289 L 111 289 L 111 311.179688 L 102 311.179688 Z M 102 289 " clip-rule="nonzero"/></clipPath><clipPath id="1199c59776"><path d="M 127 302 L 137 302 L 137 311.179688 L 127 311.179688 Z M 127 302 " clip-rule="nonzero"/></clipPath><clipPath id="85e2f038d5"><path d="M 153 289 L 162 289 L 162 311.179688 L 153 311.179688 Z M 153 289 " clip-rule="nonzero"/></clipPath><clipPath id="e5afe1d563"><path d="M 178 302 L 188 302 L 188 311.179688 L 178 311.179688 Z M 178 302 " clip-rule="nonzero"/></clipPath><clipPath id="727f7d7d71"><path d="M 204 289 L 214 289 L 214 311.179688 L 204 311.179688 Z M 204 289 " clip-rule="nonzero"/></clipPath><clipPath id="7e76073295"><path d="M 230 302 L 239 302 L 239 311.179688 L 230 311.179688 Z M 230 302 " clip-rule="nonzero"/></clipPath><clipPath id="407d811be9"><path d="M 255 289 L 265 289 L 265 311.179688 L 255 311.179688 Z M 255 289 " clip-rule="nonzero"/></clipPath></defs><rect x="-37.5" width="450" fill="#ffffff" y="-37.499999" height="449.999989" fill-opacity="1"/><rect x="-37.5" width="450" fill="#ffffff" y="-37.499999" height="449.999989" fill-opacity="1"/><g clip-path="url(#ed6b6e5593)"><path fill="#0284c7" d="M 264.347656 247.273438 L 67.941406 247.273438 L 67.941406 255.816406 L 272.890625 255.816406 L 272.886719 247.273438 L 264.347656 247.273438 " fill-opacity="1" fill-rule="nonzero"/></g><path fill="#0284c7" d="M 183.222656 140.535156 L 157.605469 140.535156 L 157.605469 153.339844 L 183.222656 153.339844 L 183.222656 140.535156 " fill-opacity="1" fill-rule="nonzero"/><path fill="#0284c7" d="M 247.253906 230.511719 L 238.742188 229.878906 C 239.160156 224.242188 238.820312 215.570312 234.808594 206.269531 C 229.972656 195.054688 222.242188 188.5625 219.144531 186.289062 C 214.449219 182.851562 209.171875 180.335938 203.472656 178.816406 L 205.671875 170.566406 C 212.402344 172.359375 218.632812 175.332031 224.1875 179.398438 C 227.851562 182.085938 236.984375 189.746094 242.652344 202.886719 C 246.367188 211.507812 247.960938 221.0625 247.253906 230.511719 Z M 255.808594 228.949219 C 255.808594 191.96875 225.71875 161.882812 188.738281 161.882812 L 152.089844 161.882812 C 115.109375 161.882812 85.019531 191.96875 85.019531 228.949219 L 85.019531 238.734375 L 255.808594 238.734375 L 255.808594 228.949219 " fill-opacity="1" fill-rule="nonzero"/><path fill="#0284c7" d="M 166.144531 114.914062 L 166.144531 131.996094 L 174.683594 131.996094 L 174.683594 114.914062 C 174.683594 105.496094 182.347656 97.835938 191.761719 97.835938 L 289.960938 97.835938 L 289.960938 89.296875 L 191.761719 89.296875 C 177.636719 89.296875 166.144531 100.789062 166.144531 114.914062 " fill-opacity="1" fill-rule="nonzero"/><g clip-path="url(#37a0ee857b)"><path fill="#0284c7" d="M 302.773438 63.679688 C 300.421875 63.679688 298.503906 65.59375 298.503906 67.949219 L 298.503906 119.183594 C 298.503906 121.539062 300.421875 123.453125 302.773438 123.453125 L 307.042969 123.453125 L 307.042969 63.679688 L 302.773438 63.679688 " fill-opacity="1" fill-rule="nonzero"/></g><path fill="#0284c7" d="M 76.480469 294.242188 L 85.019531 294.242188 L 85.019531 272.894531 L 76.480469 272.894531 L 76.480469 294.242188 " fill-opacity="1" fill-rule="nonzero"/><g clip-path="url(#37dac3572e)"><path fill="#0284c7" d="M 76.480469 311.320312 L 85.019531 311.320312 L 85.019531 302.78125 L 76.480469 302.78125 L 76.480469 311.320312 " fill-opacity="1" fill-rule="nonzero"/></g><g clip-path="url(#8b5f224638)"><path fill="#0284c7" d="M 102.101562 311.320312 L 110.640625 311.320312 L 110.640625 289.96875 L 102.101562 289.96875 L 102.101562 311.320312 " fill-opacity="1" fill-rule="nonzero"/></g><path fill="#0284c7" d="M 102.101562 281.429688 L 110.640625 281.429688 L 110.640625 272.894531 L 102.101562 272.894531 L 102.101562 281.429688 " fill-opacity="1" fill-rule="nonzero"/><path fill="#0284c7" d="M 127.71875 294.242188 L 136.257812 294.242188 L 136.257812 272.894531 L 127.71875 272.894531 L 127.71875 294.242188 " fill-opacity="1" fill-rule="nonzero"/><g clip-path="url(#1199c59776)"><path fill="#0284c7" d="M 127.71875 311.320312 L 136.257812 311.320312 L 136.257812 302.78125 L 127.71875 302.78125 L 127.71875 311.320312 " fill-opacity="1" fill-rule="nonzero"/></g><g clip-path="url(#85e2f038d5)"><path fill="#0284c7" d="M 153.335938 311.320312 L 161.875 311.320312 L 161.875 289.96875 L 153.335938 289.96875 L 153.335938 311.320312 " fill-opacity="1" fill-rule="nonzero"/></g><path fill="#0284c7" d="M 153.335938 281.429688 L 161.875 281.429688 L 161.875 272.894531 L 153.335938 272.894531 L 153.335938 281.429688 " fill-opacity="1" fill-rule="nonzero"/><path fill="#0284c7" d="M 178.953125 294.242188 L 187.492188 294.242188 L 187.492188 272.894531 L 178.953125 272.894531 L 178.953125 294.242188 " fill-opacity="1" fill-rule="nonzero"/><g clip-path="url(#e5afe1d563)"><path fill="#0284c7" d="M 178.953125 311.320312 L 187.492188 311.320312 L 187.492188 302.78125 L 178.953125 302.78125 L 178.953125 311.320312 " fill-opacity="1" fill-rule="nonzero"/></g><g clip-path="url(#727f7d7d71)"><path fill="#0284c7" d="M 204.574219 311.320312 L 213.113281 311.320312 L 213.113281 289.96875 L 204.574219 289.96875 L 204.574219 311.320312 " fill-opacity="1" fill-rule="nonzero"/></g><path fill="#0284c7" d="M 204.574219 281.429688 L 213.113281 281.429688 L 213.113281 272.894531 L 204.574219 272.894531 L 204.574219 281.429688 " fill-opacity="1" fill-rule="nonzero"/><path fill="#0284c7" d="M 230.1875 294.242188 L 238.726562 294.242188 L 238.726562 272.894531 L 230.1875 272.894531 L 230.1875 294.242188 " fill-opacity="1" fill-rule="nonzero"/><g clip-path="url(#7e76073295)"><path fill="#0284c7" d="M 230.1875 311.320312 L 238.726562 311.320312 L 238.726562 302.78125 L 230.1875 302.78125 L 230.1875 311.320312 " fill-opacity="1" fill-rule="nonzero"/></g><g clip-path="url(#407d811be9)"><path fill="#0284c7" d="M 255.808594 311.320312 L 264.347656 311.320312 L 264.347656 289.96875 L 255.808594 289.96875 L 255.808594 311.320312 " fill-opacity="1" fill-rule="nonzero"/></g><path fill="#0284c7" d="M 255.808594 281.429688 L 264.347656 281.429688 L 264.347656 272.894531 L 255.808594 272.894531 L 255.808594 281.429688 " fill-opacity="1" fill-rule="nonzero"/></svg>

<svg xmlns="http://www.w3.org/2000/svg" width="500" height="500" viewBox="0 0 375 375" preserveAspectRatio="xMidYMid meet">
  <defs>
    <clipPath id="ed6b6e5593">
      <path d="M67.859 247h205.141v9H67.859z" />
    </clipPath>
    <clipPath id="37a0ee857b">
      <path d="M298.195 63.68h8.848v60.066h-8.848z" />
    </clipPath>
    <clipPath id="37dac3572e">
      <path d="M76 302h10v9.18H76z" />
    </clipPath>
    <clipPath id="8b5f224638">
      <path d="M102 289h9v22.18h-9z" />
    </clipPath>
    <clipPath id="1199c59776">
      <path d="M127 302h10v9.18h-10z" />
    </clipPath>
    <clipPath id="85e2f038d5">
      <path d="M153 289h9v22.18h-9z" />
    </clipPath>
    <clipPath id="e5afe1d563">
      <path d="M178 302h10v9.18h-10z" />
    </clipPath>
    <clipPath id="727f7d7d71">
      <path d="M204 289h10v22.18h-10z" />
    </clipPath>
    <clipPath id="7e76073295">
      <path d="M230 302h9v9.18h-9z" />
    </clipPath>
    <clipPath id="407d811be9">
      <path d="M255 289h10v22.18h-10z" />
    </clipPath>
  </defs>
  <g clip-path="url(#ed6b6e5593)">
    <path fill="#0284c7" d="M264.348 247.273H67.941v8.543H272.89l-.003-8.543z" />
  </g>
  <path fill="#0284c7" d="M183.223 140.535h-25.618v12.805h25.618z" />
  <path fill="#0284c7" d="M247.254 230.512l-8.512-.633c.418-5.637.078-14.309-3.934-23.609-4.836-11.215-12.566-17.707-15.664-19.98-4.695-3.438-9.973-5.954-15.672-7.473l2.2-8.25c6.73 1.793 12.96 4.766 18.515 8.832 3.664 2.687 12.797 10.347 18.465 23.488 3.715 8.621 5.309 18.176 4.602 27.625zm8.555-1.562c0-36.98-30.09-67.066-67.07-67.066h-36.648c-36.98 0-67.07 30.086-67.07 67.066v9.785h170.789z" />
  <path fill="#0284c7" d="M166.145 114.914v17.082h8.539v-17.082c0-9.418 7.664-17.079 17.078-17.079h98.199v-8.539h-98.199c-14.125 0-25.618 11.493-25.618 25.618z" />
  <g clip-path="url(#37a0ee857b)">
    <path fill="#0284c7" d="M302.773 63.68c-2.351 0-4.27 1.914-4.27 4.27v51.234c0 2.356 1.918 4.27 4.27 4.27h4.27V63.68z" />
  </g>
  <path fill="#0284c7" d="M76.48 294.242h8.539v-21.348H76.48z" />
  <g clip-path="url(#37dac3572e)">
    <path fill="#0284c7" d="M76.48 311.32h8.539v-8.539H76.48z" />
  </g>
  <g clip-path="url(#8b5f224638)">
    <path fill="#0284c7" d="M102.102 311.32h8.539V289.969h-8.539z" />
  </g>
  <path fill="#0284c7" d="M102.102 281.43h8.539v-8.535h-8.539z" />
  <path fill="#0284c7" d="M127.719 294.242h8.539v-21.348h-8.539z" />
  <g clip-path="url(#1199c59776)">
    <path fill="#0284c7" d="M127.719 311.32h8.539v-8.539h-8.539z" />
  </g>
  <g clip-path="url(#85e2f038d5)">
    <path fill="#0284c7" d="M153.336 311.32h8.539V289.969h-8.539z" />
  </g>
  <path fill="#0284c7" d="M153.336 281.43h8.539v-8.535h-8.539z" />
  <path fill="#0284c7" d="M178.953 294.242h8.539v-21.348h-8.539z" />
  <g clip-path="url(#e5afe1d563)">
    <path fill="#0284c7" d="M178.953 311.32h8.539v-8.539h-8.539z" />
  </g>
  <g clip-path="url(#727f7d7d71)">
    <path fill="#0284c7" d="M204.574 311.32h8.539V289.969h-8.539z" />
  </g>
  <path fill="#0284c7" d="M204.574 281.43h8.539v-8.535h-8.539z" />
  <path fill="#0284c7" d="M230.188 294.242h8.539v-21.348h-8.539z" />
  <g clip-path="url(#7e76073295)">
    <path fill="#0284c7" d="M230.188 311.32h8.539v-8.539h-8.539z" />
  </g>
  <g clip-path="url(#407d811be9)">
    <path fill="#0284c7" d="M255.809 311.32h8.539V289.969h-8.539z" />
  </g>
  <path fill="#0284c7" d="M255.809 281.43h8.539v-8.535h-8.539z" />
</svg>
